!!!COM: Mozart, Wolfgang Amadeus
!!!CDT: 1756/01/27/-1791/12/05/
!!!CNT: German
!!!OTL: Piano Sonata No. 4 in E-flat major
!!!SCT1: K<sup>1</sup> 282
!!!SCT2: K<sup>6</sup> 189g
!!!OMV: 3
!!!OMD: Allegro
!!!ODT: 1774///
**kern	**kern	**dynam
*staff2	*staff1	*staff1/2
*>[A,A,B,B]	*>[A,A,B,B]	*>[A,A,B,B]
*>norep[A,B]	*>norep[A,B]	*>norep[A,B]
*>A	*>A	*>A
*clefG2	*clefG2	*clefG2
*k[b-e-a-]	*k[b-e-a-]	*k[b-e-a-]
*E-:	*E-:	*E-:
*M2/4	*M2/4	*M2/4
8r	8b-'	p
=1	=1	=1
8r	4.b-	.
8e- 8g	.	.
4e- 4g	.	.
.	8bb-'	.
=2	=2	=2
8r	(4.bb-	.
8d 8f	.	.
4d 4f	.	.
.	8aa-)	.
=3	=3	=3
8e-L	(16aa-LL	.
.	16gg	.
8G	16ff	.
.	16ee-JJ	.
8A-	16ccLL	.
.	16ee-	.
8B-J	16dd	.
.	16ffJJ	.
=4	=4	=4
8cL	16ee-LL	.
.	16gg	.
8d	16ff	.
.	16aa-JJ)	.
8e-J	8gg'L	.
8r	8b-'J	f
=5	=5	=5
8r	4.b-	.
8e- 8g	.	.
4e- 4g	.	.
.	8bb-'	.
=6	=6	=6
8r	(4.bb-	.
8d 8f	.	.
4d 4f	.	.
.	8aa-)	.
=7	=7	=7
8e-L	(16aa-LL	.
.	16gg	.
8g 8b-	16ff	.
.	16ee-JJ	.
8f 8b-	8dd' 8aa-'L)	.
8e- 8b-J	8ee-' 8gg'J	.
=8	=8	=8
8B-L	8ee- (8ggL	.
8b-	8dd 8ffJ)	.
8B-J	8r	.
8r	8ff	p
=9	=9	=9
(16B-LL	(16eenLK	.
16f	8.ffJ)	.
16d	.	.
16fJJ	.	.
16B-LL	8r	.
16f	.	.
16d	8ffT	.
16fJJ	.	.
.	16eenqLL	.
.	16ffqJJ	.
=10	=10	=10
16AnLL	(8.eee-XL	f
16f	.	.
16c	.	.
16fJJ	16ccck	.
16ALL	8aan)	.
16f	.	.
16c	8ee-'J	.
16fJJ	.	.
=11	=11	=11
16B-LL	(16ddLK	p
16f	8.ffJ)	.
16d	.	.
16fJJ	.	.
16B-LL	8r	.
16f	.	.
16d	8ffT	.
16fJJ	.	.
.	16eenqLL	.
.	16ffqJJ	.
=12	=12	=12
16AnLL	(8.eee-XL	f
16f	.	.
16c	.	.
16fJJ	16ccck	.
16ALL	8aan)	.
16f	.	.
16c	8ee-TJ	.
16fJJ)	.	.
=13	=13	=13
4B-	(16ddLL	.
.	16ee-	.
.	16ff	.
.	16ggJJ)	.
4d	(16ffLL	.
.	16gg	.
.	16aan	.
.	16bb-JJ)	.
=14	=14	=14
*^	*	*
4e-	4.ryy	(16ff#LL	.
.	.	16gg)	.
.	.	(16dd	.
.	.	16ee-JJ)	.
8r	.	(16bnLL>	.
.	.	16cc)	.
*v	*v	*	*
*clefF4	*	*
*^	*	*
8e-	8E-	(16g	.
.	.	16ccJJ)	.
=15	=15	=15	=15
(8dL	4F	8b-XL	.
8cJ)	.	8anJ	.
4ryy	(16FLL	4r	.
.	16G	.	.
.	16E-	.	.
.	16FJJ	.	.
*v	*v	*	*
=16	=16	=16
4D)	8r	.
.	(8ffL	p
*clefG2	*	*
8r	8ee-	.
8d 8f	8ddJ)	.
=17	=17	=17
4e- 4g	8r	.
.	8bn'L	.
8r	(8b	.
8e- 8g	8ccJ)	.
=18	=18	=18
4f 4an	8r	.
.	(8ggL	.
8r	8ff	.
8f 8a	8ee-J)	.
=19	=19	=19
4g 4b-	8r	.
.	8cc#'L	.
8r	(8cc#	.
8g 8b-	8ddJ)	.
*clefF4	*	*
=20	=20	=20
*	*^	*
(16DLL	2bb-:	4b-: 4dd: 4ff:	f
16B-	.	.	.
16F	.	.	.
16B-JJ	.	.	.
16DLL	.	4ryy	.
16B-	.	.	.
16F	.	.	.
16B-JJ	.	.	.
=21	=21	=21	=21
16E-LL	2gg:	4g: 4cc: 4ee-:	.
16c	.	.	.
16G	.	.	.
16cJJ	.	.	.
16E-LL	.	4ryy	.
16c	.	.	.
16G	.	.	.
16cJJ	.	.	.
*	*v	*v	*
=22	=22	=22
16FLL	(16ggLL	.
16d	16ff	.
16B-	16ee-	.
16dJJ	16ddJJ)	.
16FLL	(16ddLL	.
16e-	16cc	.
16c	16b-	.
16e-JJ	16anJJ)	.
=23	=23	=23
4B- 4d)	(16ccLL	.
.	16b-	.
.	16dd	.
.	16ccJJ	.
4r	16ee-LL	.
.	16dd	.
.	16ff	.
.	16ee-JJ)	.
=24	=24	=24
4r	(8gg	p
.	4ff	.
*clefG2	*	*
4d 4f	.	.
.	8dd)	.
=25	=25	=25
4r	(8bn	.
.	4dd	.
4e- 4g	.	.
.	8cc)	.
=26	=26	=26
4r	(8ff#	.
.	4gg	.
4f 4an	.	.
.	8ee-)	.
=27	=27	=27
4r	(8cc#	.
.	4ee-	.
4g 4b-	.	.
.	8dd)	.
*clefF4	*	*
=28	=28	=28
*	*^	*
(16DLL	2bb-:	4b-: 4dd: 4ff:	f
16B-	.	.	.
16F	.	.	.
16B-JJ	.	.	.
16DLL	.	4r	.
16B-	.	.	.
16F	.	.	.
16B-JJ	.	.	.
=29	=29	=29	=29
16E-LL	2gg:	4g: 4cc: 4ee-:	.
16c	.	.	.
16G	.	.	.
16cJJ	.	.	.
16E-LL	.	4r	.
16c	.	.	.
16G	.	.	.
16cJJ	.	.	.
*	*v	*v	*
=30	=30	=30
16FLL	(16ggLL	.
16d	16ff	.
16B-	16ee-	.
16dJJ	16ddJJ)	.
16FLL	(16ddLL	.
16e-	16cc	.
16c	16b-	.
16e-JJ	16anJJ)	.
=31	=31	=31
4G 4d)	(16anLL	.
.	16b-)	.
.	16cc'	.
.	16dd'JJ	.
4r	16ee-'LL	.
.	16ff'	.
.	16gg'	.
.	16aan'JJ	.
=32	=32	=32
(16DLL	(16bb-LL	.
16B-	16ccc	.
16F	16ddd	.
16B-JJ	16aanJJ	.
16DLL	4bb-)	.
16B-	.	.
16F	.	.
16B-JJ	.	.
=33	=33	=33
16E-LL	(16ggLL	.
16B-	16aan	.
16G	16bb-	.
16B-JJ	16ff#JJ	.
16E-LL	4gg)	.
16B-	.	.
16G	.	.
16B-JJ	.	.
=34	=34	=34
16FLL	(16ggLL	.
16d	16ffn	.
16B-	16ee-	.
16dJJ	16ddJJ)	.
16FLL	(16ddLL	.
16e-	16cc	.
16c	16b-	.
16e-JJ	16anJJ)	.
=35	=35	=35
4B- 4d)	(16b-LL	.
.	16cc	.
.	16dd	.
.	16ee-JJ	.
4r	16ffLL	.
.	16gg	.
.	16aan	.
.	16bb-JJ)	.
=36	=36	=36
8r	(16ff#LL	.
.	16gg	.
8e-'L	16ee-	.
.	16ccJJ	.
8c'	16ddLL	.
.	16ee-	.
8f'J	16cc	.
.	16anJJ)	.
=37	=37	=37
4d'	(16b-LL	.
.	16cc	.
.	16dd	.
.	16ee-JJ	.
4r	16ffnLL	.
.	16gg	.
.	16aan	.
.	16bb-JJ)	.
=38	=38	=38
8r	(16ff#LL	.
.	16gg	.
8e-'L	16ee-	.
.	16ccJJ	.
8c'	16ddLL	.
.	16ee-	.
8f'J	16cc	.
.	16anJJ)	.
=39	=39	=39
8B-L	4b-	.
8F	.	.
8BB-J	8r	.
=:|!|:	=:|!|:	=:|!|:
*>B	*>B	*>B
8r	8b-'	p
=40	=40	=40
8r	4.b-	.
8F 8d-	.	.
4F 4d-	.	.
.	8bb-'	.
=41	=41	=41
8r	4.bb-	.
8En 8c	.	.
4E 4c	.	.
.	8cc	f
*clefG2	*	*
=42	=42	=42
8r	(16dd-LL	.
.	16cc	.
8fL	16ddn	.
.	16ccJJ	.
8g	16ee-LL	.
.	16cc	.
8b-J	16een	.
.	16ccJJ	.
=43	=43	=43
8a-XL	16ffLL	.
.	16cc	.
8en	16gg	.
.	16ccJJ	.
8fJ	8aa-X'L)	.
8r	8a-'J	p
*clefF4	*	*
=44	=44	=44
8r	4.a-	.
8E-X 8c-	.	.
4E- 4c-	.	.
.	8aa-'	.
=45	=45	=45
8r	4.aa-	.
8Dn 8B-	.	.
4D 4B-	.	.
.	8b-	f
*clefG2	*	*
=46	=46	=46
8r	(16cc-LL	.
.	16b-	.
8e-L	16ccn	.
.	16b-JJ	.
8f	16dd-LL	.
.	16b-	.
8a-J	16ddn	.
.	16b-JJ	.
=47	=47	=47
8gL	16ee-LL	.
.	16b-	.
8d	16ff	.
.	16b-JJ	.
8e-J	8gg')	.
*clefF4	*	*
8E-'	8r	p
=48	=48	=48
4.E-	8r	.
.	8g 8dd-	.
.	[4g [4dd-	.
8e-'	.	.
=49	=49	=49
4.e-	8g] 8dd-L]	.
.	8a- 8ccJ	.
.	[4a- [4cc	f
8EE- 8E-	.	.
=50	=50	=50
4.EE- 4.E-	8a-] 8ccL]	.
.	8g- 8b-J	.
.	[4g- [4b-	.
8E- 8e-	.	.
=51	=51	=51
4.E- 4.e-	8g-] 8b-L]	.
.	8f 8anJ	.
.	[4f [4a	.
8F'	.	p
=52	=52	=52
4.F	8f] 8an]L<	.
.	8a 8ee-J	.
.	[4a [4ee-	.
8f'	.	.
=53	=53	=53
4.f	8a] 8ee-L]	.
.	8b- 8dd-J	.
.	[4b- [4dd-	.
8FF 8F	.	f
=54	=54	=54
4.FF 4.F	8b-] 8dd-L]	.
.	8a-X 8ccJ	.
.	[4a- [4cc	.
8F 8f	.	.
=55	=55	=55
4.F 4.f	8a-] 8ccL]	.
.	8g 8bn	.
.	8g 8bJ	.
*clefG2	*	*
(16fLL	8b	.
16gJJ)	.	.
=56	=56	=56
(16e-LL	(8ccL	.
16g	.	.
16dn	8ddn	.
16gJJ	.	.
16cLL	8ee-	.
16g	.	.
16Bn	8ffJ)	.
16gJJ	.	.
=57	=57	=57
16cLL	8ee-TL	.
16g	.	.
16d	8dd'	.
16gJJ	.	.
16e-LL	8cc'	.
16g	.	.
16f	8bn'J	.
16gJJ	.	.
=58	=58	=58
16e-LL	(8ccL	.
16g	.	.
16d	8dd	.
16gJJ	.	.
16cLL	8ee-	.
16g	.	.
16Bn	8ffJ)	.
16gJJ	.	.
=59	=59	=59
8cL)	8ee-L	.
8A-' 8a-'	8ff#' 8ccc'	.
8G' 8g'J	8gg' 8bbn'J	.
8r	8r	.
*clefF4	*	*
=60	=60	=60
*^	*	*
[2d	(8F#L	(8ccL	p
.	8G	8bnJ)	.
.	8A-X	8r	.
.	8GJ)	8b'	.
=61	=61	=61	=61
2d]	(8GL	(8bnL	.
.	8A-	8b-J)	.
.	8B-	8r	.
.	8A-J)	8b-'	.
=62	=62	=62	=62
8e-	8G	4.b-	.
*v	*v	*	*
*clefG2	*	*
*^	*	*
4.ryy	8e- 8g	.	.
.	4e- 4g	.	.
.	.	8bb-'	.
*v	*v	*	*
=63	=63	=63
8r	(4.bb-	.
8d 8f	.	.
4d 4f	.	.
.	8aa-)	.
=64	=64	=64
8e-L	(16aa-LL	.
.	16gg	.
8G	16ff	.
.	16ee-JJ	.
8A-	16ccLL	.
.	16ee-	.
8B-J	16dd	.
.	16ffJJ	.
=65	=65	=65
8cL	16ee-LL	.
.	16gg	.
8d	16ff	.
.	16aa-JJ	.
8e-J	8gg'L)	.
8r	8b-'J	f
=66	=66	=66
8r	4.b-	.
8e- 8g	.	.
4e- 4g	.	.
.	8bb-'	.
=67	=67	=67
8r	(4.bb-	.
8d 8f	.	.
4d 4f	.	.
.	8aa-)	.
=68	=68	=68
8e-L	(16aa-LL	.
.	16gg	.
8g 8b-	16ff	.
.	16ee-JJ	.
8f 8b-	8dd' 8aa-'L)	.
8e- 8b-J	8ee-' 8gg'J	.
=69	=69	=69
8B-L	8ee- (8ggL	.
8b-	8dd 8ffJ)	.
8B-J	8r	.
8r	8b-	p
*clefF4	*	*
=70	=70	=70
(16E-LL	(16anLK	.
16B-	8.b-J)	.
16G	.	.
16B-JJ	.	.
16E-LL	8r	.
16B-	.	.
16G	8b-T	.
16B-JJ	.	.
.	16anqLL	.
.	16b-qJJ	.
=71	=71	=71
16DLL	(8.aa-XL	f
16B-	.	.
16F	.	.
16B-JJ	16ffk	.
16DLL	8dd)	.
16B-	.	.
16F	8a-'J	.
16B-JJ	.	.
=72	=72	=72
16E-LL	(16gLK	p
16B-	8.b-J)	.
16G	.	.
16B-JJ	.	.
16E-LL	8r	.
16B-	.	.
16G	8b-T	.
16B-JJ	.	.
.	16anqLL	.
.	16ccqJJ	.
=73	=73	=73
16DLL	(8.aa-XL	f
16B-	.	.
16F	.	.
16B-JJ	16ffk	.
16DLL	8dd)	.
16B-	.	.
16F	8a-TJ	.
16B-JJ)	.	.
.	16gqLL	.
.	16a-qJJ	.
=74	=74	=74
4E-	(16gLL	.
.	16b-	.
.	16ee-	.
.	16ggJJ)	.
4G	(16bb-LL	.
.	16gg	.
.	16ee-	.
.	16b-JJ)	.
=75	=75	=75
4A-	16ccLL	.
.	(16ccc	.
.	16bbn	.
.	16cccJJ)	.
8r	(16ggLL	.
.	16aa-)	.
*clefG2	*	*
8A- 8a-	(16een	.
.	16ffJJ)	.
=76	=76	=76
*^	*	*
(8gL	4B-	(8ee-XL	.
8fJ)	.	8ddJ)	.
*v	*v	*	*
*clefF4	*	*
*^	*	*
(16B-LL	4ryy	4r	.
16c	.	.	.
16A-	.	.	.
16B-JJ	.	.	.
*v	*v	*	*
=77	=77	=77
4G)	8r	.
.	(8bb-L	p
*clefG2	*	*
8r	8aa-	.
8g 8b-	8ggJ)	.
=78	=78	=78
4a- 4cc	8r	.
.	8een'L	.
8r	(8ee	.
8a- 8cc	8ffJ)	.
=79	=79	=79
4b- 4dd	8r	.
.	(8cccL	.
8r	8bb-	.
8b- 8dd	8aa-J)	.
=80	=80	=80
4cc 4ee-	8r	.
.	8ff#'L	.
8r	(8ff#	.
8cc 8ee-	8ggJ)	.
*clefF4	*	*
=81	=81	=81
*	*^	*
(>16GGLL	2ee-:	4e-: 4g: 4b-:	f
16E-	.	.	.
16BB-	.	.	.
16E-JJ	.	.	.
16GGLL	.	4r	.
16E-	.	.	.
16BB-	.	.	.
16E-JJ	.	.	.
=82	=82	=82	=82
16AA-LL	2cc:	4c: 4f: 4a-:	.
16F	.	.	.
16C	.	.	.
16FJJ	.	.	.
16AA-LL	.	4r	.
16F	.	.	.
16C	.	.	.
16FJJ	.	.	.
*	*v	*v	*
=83	=83	=83
16BB-LL	(16ccLL	.
16G	16b-	.
16E-	16a-	.
16GJJ	16gJJ)	.
16BB-LL	(16gLL	.
16A-	16f	.
16F	16e-	.
16A-JJ	16dJJ	.
=84	=84	=84
4E- 4G)	16fLL	.
.	16e-	>
.	16g	.
.	16fJJ	.
4r	16a-LL	.
.	16g	.
.	16b-	.
.	16a-JJ)	]
=85	=85	=85
4r	(8cc	p
.	4b-	.
4G 4B-	.	.
.	8g)	.
=86	=86	=86
4r	(8en	.
.	4g	.
4A- 4c	.	.
.	8f)	.
=87	=87	=87
4r	(8bn	.
.	4cc	.
4B- 4d	.	.
.	8a-)	.
=88	=88	=88
4r	(8f#	.
.	4a-	.
4c 4e-	.	.
.	8g)	.
=89	=89	=89
*	*^	*
(>16GGLL	2ee-:	4e-: 4g: 4b-:	f
16E-	.	.	.
16BB-	.	.	.
16E-JJ	.	.	.
16GGLL	.	4r	.
16E-	.	.	.
16BB-	.	.	.
16E-JJ	.	.	.
=90	=90	=90	=90
16AA-LL>	2cc:	4c: 4f: 4a-:	.
16F	.	.	.
16C	.	.	.
16FJJ	.	.	.
16AA-LL>	.	4r	.
16F	.	.	.
16C	.	.	.
16FJJ	.	.	.
*	*v	*v	*
=91	=91	=91
16BB-LL	(16ccLL	.
16G	16b-	.
16E-	16a-	.
16GJJ	16gJJ)	.
16BB-LL	(16gLL	.
16A-	16f	.
16F	16e-	.
16A-JJ	16dJJ	.
=92	=92	=92
4C 4G)	16e-LL)	.
.	(16ee-	.
.	16ff	.
.	16ggJJ	.
4r	16aa-LL	.
.	16bb-	.
.	16ccc	.
.	16dddJJ	.
=93	=93	=93
(16GLL	16eee-LL	.
16e-	16bb-	.
16B-	16gg	.
16e-JJ	16ee-JJ)	.
16GLL	4ee-TT	.
16e-	.	.
16B-	.	.
16e-JJ	.	.
.	16ddqLL	.
.	16ee-qJJ	.
=94	=94	=94
16A-LL	(16ccLL	.
16f	16ff	.
16c	16aa-	.
16fJJ	16cccJJ)	.
16A-LL	4cccTT	.
16f	.	.
16c	.	.
16fJJ	.	.
.	16bbnqLL	.
.	16cccqJJ	.
*clefG2	*	*
=95	=95	=95
16B-LL	(16cccLL	.
16g	16bb-X	.
16e-	16aa-	.
16gJJ	16ggJJ)	.
16B-LL	(16ggLL	.
16a-	16ff	.
16f	16ee-	.
16a-JJ	16ddJJ	.
=96	=96	=96
4e- 4g)	16ee-LL	.
.	16ff	.
.	16gg	.
.	16aa-JJ	.
4r	16bb-LL	.
.	16ccc	.
.	16ddd	.
.	16eee-JJ)	.
=97	=97	=97
8r	(16bbnLL	.
.	16ccc	.
8a-'L	16aa-	.
.	16ffJJ)	.
8f'	(16ggLL	.
.	16aa-	.
8b-'J	16ff	.
.	16ddJJ)	.
=98	=98	=98
4g	(16ee-LL	.
.	16ff	.
.	16gg	.
.	16aa-JJ	.
4r	16bb-XLL	.
.	16gg	.
.	16ee-	.
.	16b-JJ)	.
*clefF4	*	*
=99	=99	=99
8r	(16bnLL	.
.	16cc	.
8A-'L	16a-	.
.	16fJJ)	.
8F'	(16gLL	.
.	16a-	.
8B-'J	16f	.
.	16dJJ)	.
=100	=100	=100
4E-	16e-'LL	.
.	(16b-X	.
.	16an	.
.	16b-JJ	.
*clefG2	*	*
8r	16ccLL	.
.	16b-	.
8B- 8f 8a-	16dd	.
.	16b-JJ	.
=101	=101	=101
4e- 4g	16ee-LL	.
.	16b-	.
.	16an	.
.	16b-JJ	.
8r	16ccLL	.
.	16b-	.
8B- 8f 8a-	16dd	.
.	16b-JJ	.
=102	=102	=102
4e- 4g	4ee-)	.
8r	8r	.
==:|!	==:|!	==:|!
*-	*-	*-
!!!RDF**kern: > = above
!!!RDF**kern: < = below
!!!YOR: Alte Mozart-Ausgabe, Band 20, Breitkopf &amp; H&auml;rtel 1877-1883.
!!!YOY: 1878
!!!YEC: 2018 Craig Stuart Sapp
!!!YEM: Licence: (CC BY-NC-SA 4.0) https://creativecommons.org/licenses/by-nc-sa/4.0
!!!YER: 2018
!!!ENC: Craig Stuart Sapp
!!!END: 2009/10/05
!!!EED: Craig Stuart Sapp
!!!EEV: 2018/06/16
!!!EFL: 12/69
!!!AGN: piano sonata
!!!AFR: 
!!!title: @{OTL}, K 282 (189g), mvmt. @{OMV}
